X: 38
T:Trip to Durrow, The
M:C|
L:1/8
R:reel
K:D
D2 FD ADFA|defd B2 Bc|dBBA dBBA|FADE FE E2|D2 FD ADFA|defd B2 Bc|dBBA FA
dB|AFGE FD D2 :|
|:d2 de fefg|afdf gfed|cdef (3gfe be|gebe gfec|dcde fefg|afdf gfed|cdef
gbag|fdec d2 de|fdec d2 de|fded B2 Bc|dBBA dBBA|FADE FE E2 |D2 FD ADFA|d
efd B2 Bc|dBBA FAdB|AFGE FD D2 :|
